X:1
T:Title
%%score { ( 1 3 ) | 2 }
L:1/8
Q:1/4=84
M:6/8
K:Eb
V:1 treble nm="Grand Piano"
V:3 treble 
V:2 bass 
V:1
 G_G=G AG_G | G3 E3 | B=AB cBA | B6 | [DB][DF][DF] [DF][EG][FA] | G3 B3 | =AGF ABc | [DB]6 | %8
w: Benjamin~F.~Butts * * * * *||||||||
 [GB][Ac][GB] [FA][EG][DF] | [EG]3 [GB]3 | cAc [ce][Bd][Ac] | [GB]6 | [Ge][GB]A GAB | c3 e3 | %14
w: ||||||
 [Ge][GB][EG] [DF][DG][DF] | E6 | G_G=G E2 G | [EGB][C_G=A][E=GB] .[B,EG]3 | %18
w: ||||
 [Ec][CEA][EAc] [EGB][B,FA][B,EG] | z3 [B,B]3 | G_G=G E2 [DF] | GAB c3 | eBG [DF][EG][DF] | E6 |] %24
w: ||||||
V:2
 [E,B,E][E,=A,E][E,B,E] [E,CE][E,B,E][E,A,E] | [E,B,E]3 [E,G,B,]3 | %2
 [E,G,E][E,_G,E][E,=G,E] [E,A,E][E,G,E][E,_G,E] | [E,G,E]6 | %4
 [B,,F,][B,,B,][B,,B,] [B,,B,][B,,B,][B,,B,] | [E,B,E]3 [E,G,E]3 | %6
 [F,CE][F,B,E][F,=A,E] [F,CE][F,G,E][F,A,E] | [B,,B,]6 | %8
 [B,,B,][B,,B,][B,,B,] [B,,B,][B,,B,][B,,B,] | [E,B,]3 [E,E]3 | %10
 [A,EA][A,CE][A,EA] [A,E][A,E][K:bass][A,E] | [E,E]6 | [E,B,][E,E][E,CE] [E,B,E][F,B,D][B,E] | %13
 [A,E]3 [A,,CA]3 | [B,,B,][B,,B,][B,,B,] [B,,A,][B,,B,][B,,A,] | [E,G,]6 | %16
 [E,B,E][E,=A,E][E,B,E] [E,G,B,]2 [E,B,E] | E,E,E, .E,3 | A,A,A, E,E,E, | F,F,F, B,,C,D, | %20
 [E,B,E][E,=A,E][E,B,E] [E,G,B,]2 [B,,B,] | [E,B,E][F,B,D][G,B,E] [A,E]3 | %22
 [G,B,E][G,B,E][E,B,E] [B,,B,][B,,B,][B,,A,] | [E,G,]6 |] %24
V:3
 x6 | x6 | x6 | x6 | x6 | x6 | x6 | x6 | x6 | x6 | x6 | x6 | x6 | x6 | x6 | x6 | x6 | x6 | x6 | %19
 [=A,EF][A,EG][A,EF] DEF | x6 | x6 | x6 | x6 |] %24

